X: 16078
T: Green Fields Of Rossbeigh, The
R: reel
M: 4/4
K: Edorian
A|:BE~E2 BAFB|ABde fded|BE~E2 BAFA|BFAF DEFA|
~B2 [d B][B d] BAFB|[A D]Bde fded|BE~E2 BAFA|BFAF E3:|
|:(3Bcd ef g2fe|dB~B2 dBAF|(3Bcd e[f d] gefe|dBAF E2ef|
~g3a gfeg|~f3g fedB|ABde fdec|dBAF E2FA:|

